X: 1
M: 2/4
L: 1/16
Q: 1/4= "134-132 M.M."
K: D
"D"vDEFD B,2B,2 | vA,A,A,A, D2D2 | "A7"vdcdA vBdAG |[1 "D"vFDEC D4 :|[2 "D"FDEC D2 ||
|: (ufg | "D"va)gfa gfeg | "A7"vfedf "A"e(cA2) | "A7"dcdf e2 ((3ABc | "A"vd)cdf "A7"e2(fg |
"D"a)gfa gfeg | "G"vfedf e(cA2) | "D"vdcdA vBdAG |[1 "D"vFDEC D2 :|[2 "D"FDEC D4 |]



